packages/elements/bolt-icon/src/svgs/partners.svg

<svg enable-background="new 0 0 32 32" viewBox="0 0 32 32" xmlns="http://www.w3.org/2000/svg"><path clip-rule="evenodd" d="m25.4 16.9c1.4-.8 2.6-1.9 3.4-3.3s1.3-3 1.2-4.6c0-2.4-.9-4.7-2.7-6.3-1.6-1.8-3.9-2.7-6.3-2.7-1.5 0-3.1.4-4.4 1.2-1.3.7-2.4 1.8-3.2 3.1 0 .2.1.3.2.5.2.5.3.8.4 1s.2.4.4.5.3.1.5-.1c.2-.4.3-.9.4-1.3 1.3-1.8 3.4-2.9 5.7-2.9 1.9 0 3.6.7 4.9 2.1 1.4 1.3 2.1 3 2.1 4.9 0 1.7-.6 3.3-1.7 4.6s-2.6 2.1-4.3 2.3c0 .9-.2 1.8-.6 2.6 5.8 1 8.6 3.5 8.6 7.4h2c0-4.4-2.2-7.4-6.6-9zm-9.5 3c1.4-1.3 2.1-3 2.1-4.9s-.7-3.6-2.1-4.9c-1.3-1.4-3-2.1-4.9-2.1s-3.6.7-4.9 2.1c-1.4 1.3-2.1 3-2.1 4.9s.7 3.6 2.1 4.9c1.3 1.4 3 2.1 4.9 2.1s3.6-.7 4.9-2.1zm4.1 12.1c0-2-.8-3.9-2.3-5.3-1.9-1.5-4.3-2.3-6.7-2.2-3.1 0-5.4.7-6.8 2.1-1.5 1.4-2.3 3.4-2.2 5.4h-2c0-2 .6-3.9 1.8-5.5s3-2.9 4.9-3.6c-1.4-.8-2.6-1.9-3.4-3.3-.9-1.4-1.3-3-1.3-4.6 0-2.4.9-4.7 2.7-6.3 1.6-1.8 3.9-2.7 6.3-2.7s4.7.9 6.3 2.7c1.7 1.6 2.7 3.9 2.7 6.3.1 3.3-1.7 6.3-4.6 7.9 4.4 1.6 6.6 4.7 6.6 9.1z" fill="#151619" fill-rule="evenodd"/></svg>

<?xml version="1.0" encoding="utf-8"?>
<!-- Generator: Adobe Illustrator 25.2.0, SVG Export Plug-In . SVG Version: 6.00 Build 0)  -->
<svg version="1.1" id="Layer_1" xmlns="http://www.w3.org/2000/svg" xmlns:xlink="http://www.w3.org/1999/xlink" x="0px" y="0px"
	 viewBox="0 0 32 32" style="enable-background:new 0 0 32 32;" xml:space="preserve">
<style type="text/css">
	.st0{fill-rule:evenodd;clip-rule:evenodd;fill:#151619;}
</style>
<path class="st0" d="M25.4,16.9c1.4-0.8,2.6-1.9,3.4-3.3c0.8-1.4,1.3-3,1.2-4.6c0-2.4-0.9-4.7-2.7-6.3C25.7,0.9,23.4,0,21,0
	c-1.5,0-3.1,0.4-4.4,1.2c-1.3,0.7-2.4,1.8-3.2,3.1c0,0.2,0.1,0.3,0.2,0.5c0.2,0.5,0.3,0.8,0.4,1c0.1,0.2,0.2,0.4,0.4,0.5
	c0.2,0.1,0.3,0.1,0.5-0.1c0.2-0.4,0.3-0.9,0.4-1.3C16.6,3.1,18.7,2,21,2c1.9,0,3.6,0.7,4.9,2.1C27.3,5.4,28,7.1,28,9
	c0,1.7-0.6,3.3-1.7,4.6c-1.1,1.3-2.6,2.1-4.3,2.3c0,0.9-0.2,1.8-0.6,2.6c5.8,1,8.6,3.5,8.6,7.4h2C32,21.5,29.8,18.5,25.4,16.9z
	 M15.9,19.9c1.4-1.3,2.1-3,2.1-4.9c0-1.9-0.7-3.6-2.1-4.9C14.6,8.7,12.9,8,11,8c-1.9,0-3.6,0.7-4.9,2.1C4.7,11.4,4,13.1,4,15
	c0,1.9,0.7,3.6,2.1,4.9c1.3,1.4,3,2.1,4.9,2.1C12.9,22,14.6,21.3,15.9,19.9z M20,32c0-2-0.8-3.9-2.3-5.3c-1.9-1.5-4.3-2.3-6.7-2.2
	c-3.1,0-5.4,0.7-6.8,2.1C2.7,28,1.9,30,2,32H0c0-2,0.6-3.9,1.8-5.5c1.2-1.6,3-2.9,4.9-3.6c-1.4-0.8-2.6-1.9-3.4-3.3
	C2.4,18.2,2,16.6,2,15c0-2.4,0.9-4.7,2.7-6.3C6.3,6.9,8.6,6,11,6c2.4,0,4.7,0.9,6.3,2.7C19,10.3,20,12.6,20,15
	c0.1,3.3-1.7,6.3-4.6,7.9c4.4,1.6,6.6,4.7,6.6,9.1H20z"/>
</svg>
